img/instagram.svg

<svg xmlns="http://www.w3.org/2000/svg" viewBox="0 0 113 115" enable-background="new 0 0 113 115"><style type="text/css">.st0{fill:#B01657;} .st1{fill:#FFFFFF;}</style><circle class="st0" cx="56.2" cy="57.5" r="51.8"/><path class="st1" d="M74.1 27.5h-35.7c-6.2 0-11.4 5.2-11.4 11.4v35.8c0 6.2 5.2 11.4 11.4 11.4h35.8c6.2 0 11.4-5.2 11.4-11.4v-35.8c0-6.2-5.3-11.4-11.5-11.4zm3.5 6.9h1.5v9.9h-10v-9.9h8.5zm-29.7 16.4c1.9-2.6 4.9-4.3 8.3-4.3s6.5 1.7 8.3 4.3c1.2 1.7 1.9 3.7 1.9 6 0 5.7-4.6 10.3-10.3 10.3s-10.1-4.6-10.1-10.3c0-2.2.7-4.3 1.9-6zm31.1 23.9c0 3.1-1.8 4.9-4.9 4.9h-35.7c-3.1 0-4.9-1.8-4.9-4.9v-24.4h8c-.8 1.6-1.2 4.1-1.2 6.2 0 8.8 7.1 16.1 15.9 16.1s15.9-7.4 15.9-16.1c0-2.1-.4-4.6-1.2-6.2h8v24.4z"/></svg>

<?xml version="1.0" encoding="utf-8"?>
<!-- Generator: Adobe Illustrator 18.1.0, SVG Export Plug-In . SVG Version: 6.00 Build 0)  -->
<!DOCTYPE svg PUBLIC "-//W3C//DTD SVG 1.1//EN" "http://www.w3.org/Graphics/SVG/1.1/DTD/svg11.dtd">
<svg version="1.1" id="Layer_1" xmlns="http://www.w3.org/2000/svg" xmlns:xlink="http://www.w3.org/1999/xlink" x="0px" y="0px"
	 viewBox="0 0 113 115" style="enable-background:new 0 0 113 115;" xml:space="preserve">
<style type="text/css">
	.st0{fill:#B81E50;}
	.st1{fill:#FFFFFF;}
</style>
<circle class="st0" cx="56.2" cy="57.5" r="51.8"/>
<path class="st1" d="M74.1,27.5H38.4c-6.2,0-11.4,5.2-11.4,11.4v11.9v23.9c0,6.2,5.2,11.4,11.4,11.4h35.8c6.2,0,11.4-5.2,11.4-11.4
	V50.8V38.9C85.6,32.7,80.3,27.5,74.1,27.5z M77.6,34.4l1.5,0v1.3v8.6l-10,0l0-9.9L77.6,34.4z M47.9,50.8c1.9-2.6,4.9-4.3,8.3-4.3
	s6.5,1.7,8.3,4.3c1.2,1.7,1.9,3.7,1.9,6c0,5.7-4.6,10.3-10.3,10.3S46,62.5,46,56.8C46,54.6,46.7,52.5,47.9,50.8z M79,74.7
	c0,3.1-1.8,4.9-4.9,4.9H38.4c-3.1,0-4.9-1.8-4.9-4.9V50.3h8c-0.8,1.6-1.2,4.1-1.2,6.2c0,8.8,7.1,16.1,15.9,16.1
	c8.8,0,15.9-7.4,15.9-16.1c0-2.1-0.4-4.6-1.2-6.2h8V74.7z"/>
<g>
</g>
<g>
</g>
<g>
</g>
<g>
</g>
<g>
</g>
<g>
</g>
</svg>
